X:1
T:欢乐颂 (Ode to Joy)
M:4/4
L:1/8
K:C

E E F G | G F E D | C D E E | E D D2 |
E E F G | G F E D | C D E C | D2 D2 |
D E F G | A A A A | A G F E | D E C2 |